!! 00000] TT[WS
!!!OTL: Kan meimei
!!!ARE: Asia, China,ÿShanxi Ningwu
!! Ethnic Group: Han
!! WI, 138 (1)
!!!SCT: J0167
!!!YEM: Copyright 1995, estate of Helmut Schaffrath.
**kern
*ICvox
*Ivox
*M2/4
*k[f#c#g#]
*A:
{8a
16b
16cc#
8g#
8f#
=1
8ee
16ff#
16aa
4ee
=2
8cc#
16b
16cc#
8a
16f#
16a
=3
2b}
=4
{8ee
16ff#
16aa
8ee
16dd
16cc#
=5
8b
8cc#
4ee
=6
8a
16g#
16f#
8e
8B
=7
2e}
==
!!!AGN: Xiaodiao. Qingge
!!!ONB: ESAC (Essen Associative Code) Database: CHINA
!!!AMT: simple duple
!!!AIN: vox
!!!EED: Helmut Schaffrath
!!!EEV: 1.0
*-
